Newaita-dark/mimetypes/64/office-database.svg

<svg height="64" viewBox="0 0 64 64" width="64" xmlns="http://www.w3.org/2000/svg" xmlns:xlink="http://www.w3.org/1999/xlink"><linearGradient id="a" gradientUnits="userSpaceOnUse" x1="33.076088" x2="33.076088" y1="56.067872" y2="58.71396000006"><stop offset="0" stop-opacity=".27451"/><stop offset="1" stop-opacity="0"/></linearGradient><linearGradient id="b"><stop offset="0" stop-opacity=".313726"/><stop offset=".222222" stop-opacity=".27451"/><stop offset="1" stop-opacity="0"/></linearGradient><radialGradient id="c" cx="450.908936" cy="189.579361" gradientTransform="matrix(.00000035 -.156265 -.281277 -.0000002 98.969138 127.190665)" gradientUnits="userSpaceOnUse" r="21.166656" xlink:href="#b"/><radialGradient id="d" cx="450.908936" cy="189.579361" gradientTransform="matrix(-.00000035 .156265 .281277 .0000002 -36.786098 -15.054958)" gradientUnits="userSpaceOnUse" r="21.166656" xlink:href="#b"/><radialGradient id="e" cx="450.908936" cy="189.579361" gradientTransform="matrix(-.00000035 -.156265 .281277 -.0000002 -36.786098 127.190665)" gradientUnits="userSpaceOnUse" r="21.166656" xlink:href="#b"/><radialGradient id="f" cx="450.908936" cy="189.579361" gradientTransform="matrix(.00000035 .156265 -.281277 .0000002 98.969135 -15.054959)" gradientUnits="userSpaceOnUse" r="21.166656" xlink:href="#b"/><linearGradient id="g" gradientUnits="userSpaceOnUse" x1="31.09152750013" x2="31.09152750013" y1="45.48351799994" y2="17.69960200003"><stop offset="0" stop-color="#9e9e9e"/><stop offset="1" stop-color="#bdbdbd"/></linearGradient><linearGradient id="h" gradientUnits="userSpaceOnUse" x1="248.708344" x2="248.708344" xlink:href="#b" y1="148.833328" y2="-73.416664"/><linearGradient id="i"><stop offset="0" stop-color="#bdbdbd"/><stop offset=".5" stop-color="#e0e0e0"/><stop offset="1" stop-color="#bdbdbd"/></linearGradient><linearGradient id="j" gradientUnits="userSpaceOnUse" x1="10.58434899997" x2="51.598703" xlink:href="#i" y1="48.129606" y2="48.129606"/><linearGradient id="k" gradientUnits="userSpaceOnUse" x1="10.39683099997" x2="51.598703" xlink:href="#i" y1="13.73046999994" y2="13.73047200013"/><linearGradient id="l" gradientUnits="userSpaceOnUse" x1="10.58434899997" x2="51.598703" xlink:href="#i" y1="30.93003799997" y2="30.93003799997"/><path d="m15.875 56.066406h30.429688v2.648438h-30.429688zm0 0" fill="url(#a)"/><path d="m46.304688 56.066406h5.292968v-2.644531h-5.292968zm0 0" fill="url(#c)"/><path d="m15.875 56.066406h-5.289062v2.648438h5.289062zm0 0" fill="url(#d)"/><path d="m15.875 56.066406h-5.289062v-2.644531h5.289062zm0 0" fill="url(#e)"/><path d="m46.304688 56.066406h5.292968v2.648438h-5.292968zm0 0" fill="url(#f)"/><path d="m10.585938 52.394531v1.027344c0 1.464844 1.179687 2.644531 2.644531 2.644531h35.722656c1.464844 0 2.644531-1.179687 2.644531-2.644531v-1.027344c0 1.464844-1.179687 2.644531-2.644531 2.644531h-35.722656c-1.464844 0-2.644531-1.179687-2.644531-2.644531zm0 0" fill-opacity=".235294"/><path d="m13.230469 17.699219h35.722656v27.785156h-35.722656zm0 0" fill="url(#g)"/><path d="m105.833643-73.41977h285.753962v222.260025h-285.753962zm0 0" fill="url(#h)" stroke="#212121" stroke-linecap="round" stroke-linejoin="round" stroke-width="3" transform="matrix(.125012 0 0 .125012 0 26.877566)"/><path d="m13.230469 40.191406h35.722656c1.460937 0 2.644531 1.183594 2.644531 2.644532v10.585937c0 1.460937-1.183594 2.644531-2.644531 2.644531h-35.722656c-1.460938 0-2.644531-1.183594-2.644531-2.644531v-10.585937c0-1.460938 1.183593-2.644532 2.644531-2.644532zm0 0" fill="url(#j)"/><path d="m13.230469 5.792969h35.722656c1.460937 0 2.644531 1.183593 2.644531 2.644531v10.585938c0 1.460937-1.183594 2.644531-2.644531 2.644531h-35.722656c-1.460938 0-2.644531-1.183594-2.644531-2.644531v-10.585938c0-1.460938 1.183593-2.644531 2.644531-2.644531zm0 0" fill="url(#k)"/><path d="m13.230469 22.992188h35.722656c1.460937 0 2.644531 1.183593 2.644531 2.644531v10.585937c0 1.460938-1.183594 2.644532-2.644531 2.644532h-35.722656c-1.460938 0-2.644531-1.183594-2.644531-2.644532v-10.585937c0-1.460938 1.183593-2.644531 2.644531-2.644531zm0 0" fill="url(#l)"/><path d="m13.230469 40.191406c-1.464844 0-2.644531 1.179688-2.644531 2.644532v.664062c0-1.46875 1.179687-2.648438 2.644531-2.648438h35.722656c1.464844 0 2.644531 1.179688 2.644531 2.648438v-.664062c0-1.464844-1.179687-2.644532-2.644531-2.644532zm0 0" fill="#fff"/><path d="m13.230469 5.792969c-1.464844 0-2.644531 1.179687-2.644531 2.644531v.664062c0-1.46875 1.179687-2.648437 2.644531-2.648437h35.722656c1.464844 0 2.644531 1.179687 2.644531 2.648437v-.664062c0-1.464844-1.179687-2.644531-2.644531-2.644531zm0 0" fill="#fff"/><path d="m13.230469 22.992188c-1.464844 0-2.644531 1.179687-2.644531 2.644531v.664062c0-1.46875 1.179687-2.648437 2.644531-2.648437h35.722656c1.464844 0 2.644531 1.179687 2.644531 2.648437v-.664062c0-1.464844-1.179687-2.644531-2.644531-2.644531zm0 0" fill="#fff"/><g fill-opacity=".235294"><path d="m10.585938 52.925781v.496094c0 1.464844 1.179687 2.644531 2.644531 2.644531h35.722656c1.464844 0 2.644531-1.179687 2.644531-2.644531v-.496094c0 1.464844-1.179687 2.644531-2.644531 2.644531h-35.722656c-1.464844 0-2.644531-1.179687-2.644531-2.644531zm0 0"/><path d="m10.585938 18.527344v.496094c0 1.464843 1.179687 2.644531 2.644531 2.644531h35.722656c1.464844 0 2.644531-1.179688 2.644531-2.644531v-.496094c0 1.464844-1.179687 2.644531-2.644531 2.644531h-35.722656c-1.464844 0-2.644531-1.179687-2.644531-2.644531zm0 0"/><path d="m10.585938 35.726562v.496094c0 1.464844 1.179687 2.644532 2.644531 2.644532h35.722656c1.464844 0 2.644531-1.179688 2.644531-2.644532v-.496094c0 1.464844-1.179687 2.644532-2.644531 2.644532h-35.722656c-1.464844 0-2.644531-1.179688-2.644531-2.644532zm0 0"/></g><path d="m105.833643 106.500548h285.753962c11.686384 0 21.15423 9.467846 21.15423 21.15423v84.679414c0 11.686384-9.467846 21.154229-21.15423 21.154229h-285.753962c-11.686384 0-21.154229-9.467845-21.154229-21.154229v-84.679414c0-11.686384 9.467845-21.15423 21.154229-21.15423zm0 0" fill="none" stroke="#212121" stroke-linecap="round" stroke-linejoin="round" stroke-width="3" transform="matrix(.125012 0 0 .125012 0 26.877566)"/><path d="m105.833643-168.660675h285.753962c11.686384 0 21.15423 9.467846 21.15423 21.15423v84.679413c0 11.686384-9.467846 21.15423-21.15423 21.15423h-285.753962c-11.686384 0-21.154229-9.467846-21.154229-21.15423v-84.679413c0-11.686384 9.467845-21.15423 21.154229-21.15423zm0 0" fill="none" stroke="#212121" stroke-linecap="round" stroke-linejoin="round" stroke-width="3" transform="matrix(.125012 0 0 .125012 0 26.877566)"/><path d="m105.833643-31.080063h285.753962c11.686384 0 21.15423 9.467845 21.15423 21.154229v84.679414c0 11.686384-9.467846 21.15423-21.15423 21.15423h-285.753962c-11.686384 0-21.154229-9.467846-21.154229-21.15423v-84.679414c0-11.686384 9.467845-21.154229 21.154229-21.154229zm0 0" fill="none" stroke="#212121" stroke-linecap="round" stroke-linejoin="round" stroke-width="3" transform="matrix(.125012 0 0 .125012 0 26.877566)"/></svg>

<?xml version="1.0" encoding="UTF-8"?>
<svg xmlns="http://www.w3.org/2000/svg" xmlns:xlink="http://www.w3.org/1999/xlink" width="64px" height="64px" viewBox="0 0 64 64" version="1.1">
<defs>
<linearGradient id="linear0" gradientUnits="userSpaceOnUse" x1="254" y1="233.5" x2="254" y2="254.666672" gradientTransform="matrix(0.125012,0,0,0.125012,1.32304,26.87757)">
<stop offset="0" style="stop-color:rgb(0%,0%,0%);stop-opacity:0.27451;"/>
<stop offset="1" style="stop-color:rgb(0%,0%,0%);stop-opacity:0;"/>
</linearGradient>
<radialGradient id="radial0" gradientUnits="userSpaceOnUse" cx="450.908936" cy="189.579361" fx="450.908936" fy="189.579361" r="21.166656" gradientTransform="matrix(0.000000348341,-0.156265,-0.281277,-0.000000203077,98.969138,127.190665)">
<stop offset="0" style="stop-color:rgb(0%,0%,0%);stop-opacity:0.313726;"/>
<stop offset="0.222222" style="stop-color:rgb(0%,0%,0%);stop-opacity:0.27451;"/>
<stop offset="1" style="stop-color:rgb(0%,0%,0%);stop-opacity:0;"/>
</radialGradient>
<radialGradient id="radial1" gradientUnits="userSpaceOnUse" cx="450.908936" cy="189.579361" fx="450.908936" fy="189.579361" r="21.166656" gradientTransform="matrix(-0.000000348341,0.156265,0.281277,0.000000203077,-36.786098,-15.054958)">
<stop offset="0" style="stop-color:rgb(0%,0%,0%);stop-opacity:0.313726;"/>
<stop offset="0.222222" style="stop-color:rgb(0%,0%,0%);stop-opacity:0.27451;"/>
<stop offset="1" style="stop-color:rgb(0%,0%,0%);stop-opacity:0;"/>
</radialGradient>
<radialGradient id="radial2" gradientUnits="userSpaceOnUse" cx="450.908936" cy="189.579361" fx="450.908936" fy="189.579361" r="21.166656" gradientTransform="matrix(-0.000000348341,-0.156265,0.281277,-0.000000203077,-36.786098,127.190665)">
<stop offset="0" style="stop-color:rgb(0%,0%,0%);stop-opacity:0.313726;"/>
<stop offset="0.222222" style="stop-color:rgb(0%,0%,0%);stop-opacity:0.27451;"/>
<stop offset="1" style="stop-color:rgb(0%,0%,0%);stop-opacity:0;"/>
</radialGradient>
<radialGradient id="radial3" gradientUnits="userSpaceOnUse" cx="450.908936" cy="189.579361" fx="450.908936" fy="189.579361" r="21.166656" gradientTransform="matrix(0.000000348341,0.156265,-0.281277,0.000000203077,98.969135,-15.054959)">
<stop offset="0" style="stop-color:rgb(0%,0%,0%);stop-opacity:0.313726;"/>
<stop offset="0.222222" style="stop-color:rgb(0%,0%,0%);stop-opacity:0.27451;"/>
<stop offset="1" style="stop-color:rgb(0%,0%,0%);stop-opacity:0;"/>
</radialGradient>
<linearGradient id="linear1" gradientUnits="userSpaceOnUse" x1="248.708344" y1="148.833328" x2="248.708344" y2="-73.416664" gradientTransform="matrix(0.125012,0,0,0.125012,0,26.877566)">
<stop offset="0" style="stop-color:rgb(61.960787%,61.960787%,61.960787%);stop-opacity:1;"/>
<stop offset="1" style="stop-color:rgb(74.117649%,74.117649%,74.117649%);stop-opacity:1;"/>
</linearGradient>
<linearGradient id="linear2" gradientUnits="userSpaceOnUse" x1="248.708344" y1="148.833328" x2="248.708344" y2="-73.416664" >
<stop offset="0" style="stop-color:rgb(0%,0%,0%);stop-opacity:0.313726;"/>
<stop offset="0.222222" style="stop-color:rgb(0%,0%,0%);stop-opacity:0.27451;"/>
<stop offset="1" style="stop-color:rgb(0%,0%,0%);stop-opacity:0;"/>
</linearGradient>
<linearGradient id="linear3" gradientUnits="userSpaceOnUse" x1="84.666664" y1="170" x2="412.75" y2="170" gradientTransform="matrix(0.125012,0,0,0.125012,0,26.877566)">
<stop offset="0" style="stop-color:rgb(74.117649%,74.117649%,74.117649%);stop-opacity:1;"/>
<stop offset="0.5" style="stop-color:rgb(87.843138%,87.843138%,87.843138%);stop-opacity:1;"/>
<stop offset="1" style="stop-color:rgb(74.117649%,74.117649%,74.117649%);stop-opacity:1;"/>
</linearGradient>
<linearGradient id="linear4" gradientUnits="userSpaceOnUse" x1="83.166664" y1="-105.166672" x2="412.75" y2="-105.166656" gradientTransform="matrix(0.125012,0,0,0.125012,0,26.877566)">
<stop offset="0" style="stop-color:rgb(74.117649%,74.117649%,74.117649%);stop-opacity:1;"/>
<stop offset="0.5" style="stop-color:rgb(87.843138%,87.843138%,87.843138%);stop-opacity:1;"/>
<stop offset="1" style="stop-color:rgb(74.117649%,74.117649%,74.117649%);stop-opacity:1;"/>
</linearGradient>
<linearGradient id="linear5" gradientUnits="userSpaceOnUse" x1="84.666664" y1="32.416664" x2="412.75" y2="32.416664" gradientTransform="matrix(0.125012,0,0,0.125012,0,26.877566)">
<stop offset="0" style="stop-color:rgb(74.117649%,74.117649%,74.117649%);stop-opacity:1;"/>
<stop offset="0.5" style="stop-color:rgb(87.843138%,87.843138%,87.843138%);stop-opacity:1;"/>
<stop offset="1" style="stop-color:rgb(74.117649%,74.117649%,74.117649%);stop-opacity:1;"/>
</linearGradient>
</defs>
<g id="surface1">
<path style=" stroke:none;fill-rule:nonzero;fill:url(#linear0);" d="M 15.875 56.066406 L 46.304688 56.066406 L 46.304688 58.714844 L 15.875 58.714844 Z M 15.875 56.066406 "/>
<path style=" stroke:none;fill-rule:nonzero;fill:url(#radial0);" d="M 46.304688 56.066406 L 51.597656 56.066406 L 51.597656 53.421875 L 46.304688 53.421875 Z M 46.304688 56.066406 "/>
<path style=" stroke:none;fill-rule:nonzero;fill:url(#radial1);" d="M 15.875 56.066406 L 10.585938 56.066406 L 10.585938 58.714844 L 15.875 58.714844 Z M 15.875 56.066406 "/>
<path style=" stroke:none;fill-rule:nonzero;fill:url(#radial2);" d="M 15.875 56.066406 L 10.585938 56.066406 L 10.585938 53.421875 L 15.875 53.421875 Z M 15.875 56.066406 "/>
<path style=" stroke:none;fill-rule:nonzero;fill:url(#radial3);" d="M 46.304688 56.066406 L 51.597656 56.066406 L 51.597656 58.714844 L 46.304688 58.714844 Z M 46.304688 56.066406 "/>
<path style=" stroke:none;fill-rule:nonzero;fill:rgb(0%,0%,0%);fill-opacity:0.235294;" d="M 10.585938 52.394531 L 10.585938 53.421875 C 10.585938 54.886719 11.765625 56.066406 13.230469 56.066406 L 48.953125 56.066406 C 50.417969 56.066406 51.597656 54.886719 51.597656 53.421875 L 51.597656 52.394531 C 51.597656 53.859375 50.417969 55.039062 48.953125 55.039062 L 13.230469 55.039062 C 11.765625 55.039062 10.585938 53.859375 10.585938 52.394531 Z M 10.585938 52.394531 "/>
<path style=" stroke:none;fill-rule:nonzero;fill:url(#linear1);" d="M 13.230469 17.699219 L 48.953125 17.699219 L 48.953125 45.484375 L 13.230469 45.484375 Z M 13.230469 17.699219 "/>
<path style="fill-rule:nonzero;fill:url(#linear2);stroke-width:3;stroke-linecap:round;stroke-linejoin:round;stroke:rgb(12.941177%,12.941177%,12.941177%);stroke-opacity:1;stroke-miterlimit:4;" d="M 105.833643 -73.41977 L 391.587605 -73.41977 L 391.587605 148.840255 L 105.833643 148.840255 Z M 105.833643 -73.41977 " transform="matrix(0.125012,0,0,0.125012,0,26.877566)"/>
<path style=" stroke:none;fill-rule:nonzero;fill:url(#linear3);" d="M 13.230469 40.191406 L 48.953125 40.191406 C 50.414062 40.191406 51.597656 41.375 51.597656 42.835938 L 51.597656 53.421875 C 51.597656 54.882812 50.414062 56.066406 48.953125 56.066406 L 13.230469 56.066406 C 11.769531 56.066406 10.585938 54.882812 10.585938 53.421875 L 10.585938 42.835938 C 10.585938 41.375 11.769531 40.191406 13.230469 40.191406 Z M 13.230469 40.191406 "/>
<path style=" stroke:none;fill-rule:nonzero;fill:url(#linear4);" d="M 13.230469 5.792969 L 48.953125 5.792969 C 50.414062 5.792969 51.597656 6.976562 51.597656 8.4375 L 51.597656 19.023438 C 51.597656 20.484375 50.414062 21.667969 48.953125 21.667969 L 13.230469 21.667969 C 11.769531 21.667969 10.585938 20.484375 10.585938 19.023438 L 10.585938 8.4375 C 10.585938 6.976562 11.769531 5.792969 13.230469 5.792969 Z M 13.230469 5.792969 "/>
<path style=" stroke:none;fill-rule:nonzero;fill:url(#linear5);" d="M 13.230469 22.992188 L 48.953125 22.992188 C 50.414062 22.992188 51.597656 24.175781 51.597656 25.636719 L 51.597656 36.222656 C 51.597656 37.683594 50.414062 38.867188 48.953125 38.867188 L 13.230469 38.867188 C 11.769531 38.867188 10.585938 37.683594 10.585938 36.222656 L 10.585938 25.636719 C 10.585938 24.175781 11.769531 22.992188 13.230469 22.992188 Z M 13.230469 22.992188 "/>
<path style=" stroke:none;fill-rule:nonzero;fill:rgb(100%,100%,100%);fill-opacity:1;" d="M 13.230469 40.191406 C 11.765625 40.191406 10.585938 41.371094 10.585938 42.835938 L 10.585938 43.5 C 10.585938 42.03125 11.765625 40.851562 13.230469 40.851562 L 48.953125 40.851562 C 50.417969 40.851562 51.597656 42.03125 51.597656 43.5 L 51.597656 42.835938 C 51.597656 41.371094 50.417969 40.191406 48.953125 40.191406 Z M 13.230469 40.191406 "/>
<path style=" stroke:none;fill-rule:nonzero;fill:rgb(100%,100%,100%);fill-opacity:1;" d="M 13.230469 5.792969 C 11.765625 5.792969 10.585938 6.972656 10.585938 8.4375 L 10.585938 9.101562 C 10.585938 7.632812 11.765625 6.453125 13.230469 6.453125 L 48.953125 6.453125 C 50.417969 6.453125 51.597656 7.632812 51.597656 9.101562 L 51.597656 8.4375 C 51.597656 6.972656 50.417969 5.792969 48.953125 5.792969 Z M 13.230469 5.792969 "/>
<path style=" stroke:none;fill-rule:nonzero;fill:rgb(100%,100%,100%);fill-opacity:1;" d="M 13.230469 22.992188 C 11.765625 22.992188 10.585938 24.171875 10.585938 25.636719 L 10.585938 26.300781 C 10.585938 24.832031 11.765625 23.652344 13.230469 23.652344 L 48.953125 23.652344 C 50.417969 23.652344 51.597656 24.832031 51.597656 26.300781 L 51.597656 25.636719 C 51.597656 24.171875 50.417969 22.992188 48.953125 22.992188 Z M 13.230469 22.992188 "/>
<path style=" stroke:none;fill-rule:nonzero;fill:rgb(0%,0%,0%);fill-opacity:0.235294;" d="M 10.585938 52.925781 L 10.585938 53.421875 C 10.585938 54.886719 11.765625 56.066406 13.230469 56.066406 L 48.953125 56.066406 C 50.417969 56.066406 51.597656 54.886719 51.597656 53.421875 L 51.597656 52.925781 C 51.597656 54.390625 50.417969 55.570312 48.953125 55.570312 L 13.230469 55.570312 C 11.765625 55.570312 10.585938 54.390625 10.585938 52.925781 Z M 10.585938 52.925781 "/>
<path style=" stroke:none;fill-rule:nonzero;fill:rgb(0%,0%,0%);fill-opacity:0.235294;" d="M 10.585938 18.527344 L 10.585938 19.023438 C 10.585938 20.488281 11.765625 21.667969 13.230469 21.667969 L 48.953125 21.667969 C 50.417969 21.667969 51.597656 20.488281 51.597656 19.023438 L 51.597656 18.527344 C 51.597656 19.992188 50.417969 21.171875 48.953125 21.171875 L 13.230469 21.171875 C 11.765625 21.171875 10.585938 19.992188 10.585938 18.527344 Z M 10.585938 18.527344 "/>
<path style=" stroke:none;fill-rule:nonzero;fill:rgb(0%,0%,0%);fill-opacity:0.235294;" d="M 10.585938 35.726562 L 10.585938 36.222656 C 10.585938 37.6875 11.765625 38.867188 13.230469 38.867188 L 48.953125 38.867188 C 50.417969 38.867188 51.597656 37.6875 51.597656 36.222656 L 51.597656 35.726562 C 51.597656 37.191406 50.417969 38.371094 48.953125 38.371094 L 13.230469 38.371094 C 11.765625 38.371094 10.585938 37.191406 10.585938 35.726562 Z M 10.585938 35.726562 "/>
<path style="fill:none;stroke-width:3;stroke-linecap:round;stroke-linejoin:round;stroke:rgb(12.941177%,12.941177%,12.941177%);stroke-opacity:1;stroke-miterlimit:4;" d="M 105.833643 106.500548 L 391.587605 106.500548 C 403.273989 106.500548 412.741835 115.968394 412.741835 127.654778 L 412.741835 212.334192 C 412.741835 224.020576 403.273989 233.488421 391.587605 233.488421 L 105.833643 233.488421 C 94.147259 233.488421 84.679414 224.020576 84.679414 212.334192 L 84.679414 127.654778 C 84.679414 115.968394 94.147259 106.500548 105.833643 106.500548 Z M 105.833643 106.500548 " transform="matrix(0.125012,0,0,0.125012,0,26.877566)"/>
<path style="fill:none;stroke-width:3;stroke-linecap:round;stroke-linejoin:round;stroke:rgb(12.941177%,12.941177%,12.941177%);stroke-opacity:1;stroke-miterlimit:4;" d="M 105.833643 -168.660675 L 391.587605 -168.660675 C 403.273989 -168.660675 412.741835 -159.192829 412.741835 -147.506445 L 412.741835 -62.827032 C 412.741835 -51.140648 403.273989 -41.672802 391.587605 -41.672802 L 105.833643 -41.672802 C 94.147259 -41.672802 84.679414 -51.140648 84.679414 -62.827032 L 84.679414 -147.506445 C 84.679414 -159.192829 94.147259 -168.660675 105.833643 -168.660675 Z M 105.833643 -168.660675 " transform="matrix(0.125012,0,0,0.125012,0,26.877566)"/>
<path style="fill:none;stroke-width:3;stroke-linecap:round;stroke-linejoin:round;stroke:rgb(12.941177%,12.941177%,12.941177%);stroke-opacity:1;stroke-miterlimit:4;" d="M 105.833643 -31.080063 L 391.587605 -31.080063 C 403.273989 -31.080063 412.741835 -21.612218 412.741835 -9.925834 L 412.741835 74.75358 C 412.741835 86.439964 403.273989 95.90781 391.587605 95.90781 L 105.833643 95.90781 C 94.147259 95.90781 84.679414 86.439964 84.679414 74.75358 L 84.679414 -9.925834 C 84.679414 -21.612218 94.147259 -31.080063 105.833643 -31.080063 Z M 105.833643 -31.080063 " transform="matrix(0.125012,0,0,0.125012,0,26.877566)"/>
</g>
</svg>
